X:29
T: DANZ RUEBER DANZ NUEBER
N: E1024
O: Europa, Mitteleuropa, Deutschland, Franken
R: Tanz - Lied
M: 3/8
L: 1/16
K: G
G2 | F2A2A2 | G2B2
B2 | A3Bc2 | B4
G2 | F2A2A2 | G2B2
d2 | c2A2F2 | G4
d2 | d2c2c2 | B4
d2 | d2c2c2 | B4
G2 | F2A2A2 | G2B2
d2 | c2A2F2 | G4

